src/assets/img/logo.svg

<svg width="187" height="28" viewBox="0 0 187 28" fill="none" xmlns="http://www.w3.org/2000/svg">
<path d="M3.644 2.484L0.548 2.052V0.251999H19.808L20.168 6.372H17.828L16.748 2.376L7.496 2.124V12.564L14.012 12.456L14.624 9.468H16.532V17.892H14.66L14.012 14.76L7.496 14.616V24.876L13.112 25.236V27H0.764V25.236L3.644 24.876V2.484ZM22.9091 16.956C22.9091 14.796 23.3531 12.924 24.2411 11.34C25.1291 9.756 26.2931 8.556 27.7331 7.74C29.1971 6.9 30.7571 6.48 32.4131 6.48C35.4371 6.48 37.7051 7.44 39.2171 9.36C40.7531 11.28 41.5211 13.8 41.5211 16.92C41.5211 19.104 41.0771 20.988 40.1891 22.572C39.3011 24.156 38.1251 25.356 36.6611 26.172C35.2211 26.988 33.6731 27.396 32.0171 27.396C28.9931 27.396 26.7131 26.436 25.1771 24.516C23.6651 22.596 22.9091 20.076 22.9091 16.956ZM32.2331 25.344C33.8891 25.344 35.1611 24.66 36.0491 23.292C36.9371 21.924 37.3811 19.896 37.3811 17.208C37.3811 14.544 36.9731 12.432 36.1571 10.872C35.3411 9.312 34.0331 8.532 32.2331 8.532C30.5771 8.532 29.2931 9.216 28.3811 10.584C27.4931 11.952 27.0491 13.98 27.0491 16.668C27.0491 19.332 27.4691 21.444 28.3091 23.004C29.1491 24.564 30.4571 25.344 32.2331 25.344ZM44.8834 25.236L47.5834 25.02V9.792L44.9914 9.144V7.2L49.9594 6.552H50.0314L50.8234 7.2V7.848L50.7154 10.656H50.8234C51.0634 10.248 51.4954 9.72 52.1194 9.072C52.7434 8.424 53.5474 7.836 54.5314 7.308C55.5154 6.756 56.5834 6.48 57.7354 6.48C58.2154 6.48 58.6114 6.54 58.9234 6.66V10.692C58.7554 10.572 58.4794 10.464 58.0954 10.368C57.7354 10.248 57.3274 10.188 56.8714 10.188C54.8794 10.188 53.0314 10.8 51.3274 12.024V24.984L55.8994 25.272V27H44.8834V25.236ZM70.1557 27.396C67.2517 27.396 65.0317 26.448 63.4957 24.552C61.9837 22.656 61.2277 20.124 61.2277 16.956C61.2277 14.868 61.6237 13.032 62.4157 11.448C63.2077 9.864 64.3117 8.64 65.7277 7.776C67.1677 6.912 68.7997 6.48 70.6237 6.48C72.8557 6.48 74.5837 7.104 75.8077 8.352C77.0557 9.576 77.7157 11.34 77.7877 13.644C77.7877 15.108 77.7037 16.224 77.5357 16.992H65.1517C65.1997 19.368 65.7517 21.288 66.8077 22.752C67.8637 24.192 69.3637 24.912 71.3077 24.912C72.2677 24.912 73.2637 24.744 74.2957 24.408C75.3517 24.048 76.1677 23.628 76.7437 23.148L77.4277 24.732C76.7317 25.452 75.6997 26.076 74.3317 26.604C72.9637 27.132 71.5717 27.396 70.1557 27.396ZM73.8277 15.084C73.8997 14.58 73.9357 14.064 73.9357 13.536C73.9117 11.976 73.5757 10.752 72.9277 9.864C72.3037 8.952 71.3077 8.496 69.9397 8.496C68.5477 8.496 67.4317 9 66.5917 10.008C65.7757 11.016 65.3077 12.708 65.1877 15.084H73.8277ZM80.4497 17.136C80.4497 15.144 80.8337 13.344 81.6017 11.736C82.3937 10.128 83.5457 8.856 85.0577 7.92C86.5937 6.96 88.4297 6.48 90.5657 6.48C91.5977 6.48 92.4857 6.576 93.2297 6.768C93.9737 6.96 94.8617 7.224 95.8937 7.56L95.7497 13.104H93.4097L92.6177 9.432C92.4737 8.76 91.5617 8.424 89.8817 8.424C88.2017 8.424 86.8697 9.108 85.8857 10.476C84.9257 11.82 84.4457 13.74 84.4457 16.236C84.4457 19.068 84.9857 21.228 86.0657 22.716C87.1697 24.18 88.5977 24.912 90.3497 24.912C91.3577 24.912 92.3057 24.756 93.1937 24.444C94.1057 24.132 94.8857 23.76 95.5337 23.328L96.2177 24.768C95.5697 25.44 94.6097 26.052 93.3377 26.604C92.0897 27.132 90.8177 27.396 89.5217 27.396C87.5537 27.396 85.8857 26.952 84.5177 26.064C83.1737 25.176 82.1537 23.964 81.4577 22.428C80.7857 20.868 80.4497 19.104 80.4497 17.136ZM99.3388 21.6C99.3388 19.344 100.467 17.688 102.723 16.632C104.979 15.552 107.835 14.976 111.291 14.904V13.896C111.291 12.768 111.171 11.88 110.931 11.232C110.691 10.584 110.271 10.116 109.671 9.828C109.095 9.516 108.267 9.36 107.187 9.36C105.963 9.36 104.859 9.54 103.875 9.9C102.915 10.236 101.955 10.656 100.995 11.16L100.095 9.288C100.407 9.024 100.983 8.676 101.823 8.244C102.663 7.812 103.635 7.428 104.739 7.092C105.843 6.756 106.947 6.588 108.051 6.588C109.755 6.588 111.099 6.828 112.083 7.308C113.091 7.764 113.811 8.508 114.243 9.54C114.675 10.572 114.891 11.952 114.891 13.68V25.236H117.015V26.82C116.535 26.94 115.923 27.06 115.179 27.18C114.459 27.3 113.823 27.36 113.271 27.36C112.599 27.36 112.143 27.252 111.903 27.036C111.663 26.844 111.543 26.4 111.543 25.704V24.516C110.823 25.236 109.935 25.896 108.879 26.496C107.847 27.096 106.671 27.396 105.351 27.396C103.623 27.396 102.183 26.904 101.031 25.92C99.9028 24.912 99.3388 23.472 99.3388 21.6ZM106.899 24.948C107.523 24.948 108.243 24.756 109.059 24.372C109.875 23.988 110.619 23.532 111.291 23.004V16.812C108.675 16.812 106.695 17.22 105.351 18.036C104.031 18.828 103.371 19.872 103.371 21.168C103.371 22.464 103.683 23.424 104.307 24.048C104.955 24.648 105.819 24.948 106.899 24.948ZM122.866 24.12C123.106 24.48 123.61 24.804 124.378 25.092C125.17 25.38 125.998 25.524 126.862 25.524C128.23 25.524 129.238 25.26 129.886 24.732C130.534 24.204 130.858 23.472 130.858 22.536C130.858 21.888 130.654 21.324 130.246 20.844C129.838 20.364 129.262 19.944 128.518 19.584C127.798 19.2 126.754 18.744 125.386 18.216C123.538 17.52 122.182 16.692 121.318 15.732C120.478 14.748 120.058 13.464 120.058 11.88C120.058 10.824 120.37 9.9 120.994 9.108C121.642 8.316 122.518 7.704 123.622 7.272C124.75 6.816 125.998 6.588 127.366 6.588C128.47 6.588 129.43 6.672 130.246 6.84C131.086 7.008 131.758 7.176 132.262 7.344C132.766 7.512 133.102 7.62 133.27 7.668V12.132H131.074L130.354 9.468C130.21 9.18 129.826 8.94 129.202 8.748C128.578 8.532 127.882 8.424 127.114 8.424C126.034 8.424 125.158 8.664 124.486 9.144C123.838 9.624 123.514 10.272 123.514 11.088C123.514 11.808 123.682 12.408 124.018 12.888C124.378 13.344 124.822 13.716 125.35 14.004C125.878 14.292 126.598 14.628 127.51 15.012L128.23 15.3C129.574 15.828 130.666 16.332 131.506 16.812C132.346 17.292 133.042 17.928 133.594 18.72C134.17 19.488 134.458 20.436 134.458 21.564C134.458 23.34 133.762 24.756 132.37 25.812C131.002 26.868 129.118 27.396 126.718 27.396C125.542 27.396 124.306 27.24 123.01 26.928C121.738 26.592 120.694 26.256 119.878 25.92V21.312H122.218L122.866 24.12ZM143.85 27.36C142.482 27.36 141.462 27.048 140.79 26.424C140.118 25.8 139.782 24.732 139.782 23.22V9.396H137.19V7.776C137.31 7.752 137.646 7.668 138.198 7.524C138.75 7.38 139.122 7.248 139.314 7.128C139.698 6.912 139.998 6.48 140.214 5.832C140.406 5.376 140.634 4.644 140.898 3.636C141.162 2.628 141.318 2.028 141.366 1.836H143.49L143.562 7.02H149.574V9.396H143.562V20.448C143.562 21.816 143.598 22.776 143.67 23.328C143.766 23.88 143.946 24.24 144.21 24.408C144.498 24.576 144.978 24.66 145.65 24.66C146.298 24.66 147.006 24.576 147.774 24.408C148.566 24.24 149.178 24.06 149.61 23.868L150.15 25.488C149.574 25.92 148.638 26.34 147.342 26.748C146.07 27.156 144.906 27.36 143.85 27.36ZM161.21 27.396C158.306 27.396 156.086 26.448 154.55 24.552C153.038 22.656 152.282 20.124 152.282 16.956C152.282 14.868 152.678 13.032 153.47 11.448C154.262 9.864 155.366 8.64 156.782 7.776C158.222 6.912 159.854 6.48 161.678 6.48C163.91 6.48 165.638 7.104 166.862 8.352C168.11 9.576 168.77 11.34 168.842 13.644C168.842 15.108 168.758 16.224 168.59 16.992H156.206C156.254 19.368 156.806 21.288 157.862 22.752C158.918 24.192 160.418 24.912 162.362 24.912C163.322 24.912 164.318 24.744 165.35 24.408C166.406 24.048 167.222 23.628 167.798 23.148L168.482 24.732C167.786 25.452 166.754 26.076 165.386 26.604C164.018 27.132 162.626 27.396 161.21 27.396ZM164.882 15.084C164.954 14.58 164.99 14.064 164.99 13.536C164.966 11.976 164.63 10.752 163.982 9.864C163.358 8.952 162.362 8.496 160.994 8.496C159.602 8.496 158.486 9 157.646 10.008C156.83 11.016 156.362 12.708 156.242 15.084H164.882ZM172.008 25.236L174.708 25.02V9.792L172.116 9.144V7.2L177.084 6.552H177.156L177.948 7.2V7.848L177.84 10.656H177.948C178.188 10.248 178.62 9.72 179.244 9.072C179.868 8.424 180.672 7.836 181.656 7.308C182.64 6.756 183.708 6.48 184.86 6.48C185.34 6.48 185.736 6.54 186.048 6.66V10.692C185.88 10.572 185.604 10.464 185.22 10.368C184.86 10.248 184.452 10.188 183.996 10.188C182.004 10.188 180.156 10.8 178.452 12.024V24.984L183.024 25.272V27H172.008V25.236Z" fill="#212B5A"/>
</svg>

<svg width="187" height="28" fill="none" xmlns="http://www.w3.org/2000/svg"><path d="M3.644 2.484L.548 2.052v-1.8h19.26l.36 6.12h-2.34l-1.08-3.996-9.252-.252v10.44l6.516-.108.612-2.988h1.908v8.424H14.66l-.648-3.132-6.516-.144v10.26l5.616.36V27H.764v-1.764l2.88-.36V2.484zm19.265 14.472c0-2.16.444-4.032 1.332-5.616.888-1.584 2.052-2.784 3.492-3.6a9.255 9.255 0 014.68-1.26c3.024 0 5.292.96 6.804 2.88 1.536 1.92 2.304 4.44 2.304 7.56 0 2.184-.444 4.068-1.332 5.652-.888 1.584-2.064 2.784-3.528 3.6a9.267 9.267 0 01-4.644 1.224c-3.024 0-5.304-.96-6.84-2.88-1.512-1.92-2.268-4.44-2.268-7.56zm9.324 8.388c1.656 0 2.928-.684 3.816-2.052.888-1.368 1.332-3.396 1.332-6.084 0-2.664-.408-4.776-1.224-6.336-.816-1.56-2.124-2.34-3.924-2.34-1.656 0-2.94.684-3.852 2.052-.888 1.368-1.332 3.396-1.332 6.084 0 2.664.42 4.776 1.26 6.336.84 1.56 2.148 2.34 3.924 2.34zm12.65-.108l2.7-.216V9.792l-2.592-.648V7.2l4.968-.648h.072l.792.648v.648l-.108 2.808h.108c.24-.408.672-.936 1.296-1.584s1.428-1.236 2.412-1.764a6.44 6.44 0 013.204-.828c.48 0 .876.06 1.188.18v4.032c-.168-.12-.444-.228-.828-.324-.36-.12-.768-.18-1.224-.18-1.992 0-3.84.612-5.544 1.836v12.96l4.572.288V27H44.883v-1.764zm25.273 2.16c-2.904 0-5.124-.948-6.66-2.844-1.512-1.896-2.268-4.428-2.268-7.596 0-2.088.396-3.924 1.188-5.508.792-1.584 1.896-2.808 3.312-3.672 1.44-.864 3.072-1.296 4.896-1.296 2.232 0 3.96.624 5.184 1.872 1.248 1.224 1.908 2.988 1.98 5.292 0 1.464-.084 2.58-.252 3.348H65.152c.048 2.376.6 4.296 1.656 5.76 1.056 1.44 2.556 2.16 4.5 2.16.96 0 1.956-.168 2.988-.504 1.056-.36 1.872-.78 2.448-1.26l.684 1.584c-.696.72-1.728 1.344-3.096 1.872a11.51 11.51 0 01-4.176.792zm3.672-12.312c.072-.504.108-1.02.108-1.548-.024-1.56-.36-2.784-1.008-3.672-.624-.912-1.62-1.368-2.988-1.368-1.392 0-2.508.504-3.348 1.512-.816 1.008-1.284 2.7-1.404 5.076h8.64zm6.622 2.052c0-1.992.384-3.792 1.152-5.4a9.157 9.157 0 013.456-3.816c1.536-.96 3.372-1.44 5.508-1.44 1.032 0 1.92.096 2.664.288.744.192 1.632.456 2.664.792l-.144 5.544h-2.34l-.792-3.672c-.144-.672-1.056-1.008-2.736-1.008-1.68 0-3.012.684-3.996 2.052-.96 1.344-1.44 3.264-1.44 5.76 0 2.832.54 4.992 1.62 6.48 1.104 1.464 2.532 2.196 4.284 2.196a8.518 8.518 0 002.844-.468c.912-.312 1.692-.684 2.34-1.116l.684 1.44c-.648.672-1.608 1.284-2.88 1.836a9.71 9.71 0 01-3.816.792c-1.968 0-3.636-.444-5.004-1.332-1.344-.888-2.364-2.1-3.06-3.636-.672-1.56-1.008-3.324-1.008-5.292zM99.339 21.6c0-2.256 1.128-3.912 3.384-4.968 2.256-1.08 5.112-1.656 8.568-1.728v-1.008c0-1.128-.12-2.016-.36-2.664-.24-.648-.66-1.116-1.26-1.404-.576-.312-1.404-.468-2.484-.468-1.224 0-2.328.18-3.312.54-.96.336-1.92.756-2.88 1.26l-.9-1.872c.312-.264.888-.612 1.728-1.044.84-.432 1.812-.816 2.916-1.152a11.323 11.323 0 013.312-.504c1.704 0 3.048.24 4.032.72 1.008.456 1.728 1.2 2.16 2.232.432 1.032.648 2.412.648 4.14v11.556h2.124v1.584c-.48.12-1.092.24-1.836.36-.72.12-1.356.18-1.908.18-.672 0-1.128-.108-1.368-.324-.24-.192-.36-.636-.36-1.332v-1.188c-.72.72-1.608 1.38-2.664 1.98-1.032.6-2.208.9-3.528.9-1.728 0-3.168-.492-4.32-1.476-1.128-1.008-1.692-2.448-1.692-4.32zm7.56 3.348c.624 0 1.344-.192 2.16-.576.816-.384 1.56-.84 2.232-1.368v-6.192c-2.616 0-4.596.408-5.94 1.224-1.32.792-1.98 1.836-1.98 3.132s.312 2.256.936 2.88c.648.6 1.512.9 2.592.9zm15.967-.828c.24.36.744.684 1.512.972.792.288 1.62.432 2.484.432 1.368 0 2.376-.264 3.024-.792.648-.528.972-1.26.972-2.196a2.53 2.53 0 00-.612-1.692c-.408-.48-.984-.9-1.728-1.26-.72-.384-1.764-.84-3.132-1.368-1.848-.696-3.204-1.524-4.068-2.484-.84-.984-1.26-2.268-1.26-3.852 0-1.056.312-1.98.936-2.772.648-.792 1.524-1.404 2.628-1.836 1.128-.456 2.376-.684 3.744-.684 1.104 0 2.064.084 2.88.252.84.168 1.512.336 2.016.504.504.168.84.276 1.008.324v4.464h-2.196l-.72-2.664c-.144-.288-.528-.528-1.152-.72-.624-.216-1.32-.324-2.088-.324-1.08 0-1.956.24-2.628.72-.648.48-.972 1.128-.972 1.944 0 .72.168 1.32.504 1.8.36.456.804.828 1.332 1.116.528.288 1.248.624 2.16 1.008l.72.288c1.344.528 2.436 1.032 3.276 1.512a6.36 6.36 0 012.088 1.908c.576.768.864 1.716.864 2.844 0 1.776-.696 3.192-2.088 4.248-1.368 1.056-3.252 1.584-5.652 1.584-1.176 0-2.412-.156-3.708-.468-1.272-.336-2.316-.672-3.132-1.008v-4.608h2.34l.648 2.808zm20.984 3.24c-1.368 0-2.388-.312-3.06-.936-.672-.624-1.008-1.692-1.008-3.204V9.396h-2.592v-1.62c.12-.024.456-.108 1.008-.252.552-.144.924-.276 1.116-.396.384-.216.684-.648.9-1.296.192-.456.42-1.188.684-2.196a274.3 274.3 0 00.468-1.8h2.124l.072 5.184h6.012v2.376h-6.012v11.052c0 1.368.036 2.328.108 2.88.096.552.276.912.54 1.08.288.168.768.252 1.44.252.648 0 1.356-.084 2.124-.252.792-.168 1.404-.348 1.836-.54l.54 1.62c-.576.432-1.512.852-2.808 1.26-1.272.408-2.436.612-3.492.612zm17.36.036c-2.904 0-5.124-.948-6.66-2.844-1.512-1.896-2.268-4.428-2.268-7.596 0-2.088.396-3.924 1.188-5.508.792-1.584 1.896-2.808 3.312-3.672 1.44-.864 3.072-1.296 4.896-1.296 2.232 0 3.96.624 5.184 1.872 1.248 1.224 1.908 2.988 1.98 5.292 0 1.464-.084 2.58-.252 3.348h-12.384c.048 2.376.6 4.296 1.656 5.76 1.056 1.44 2.556 2.16 4.5 2.16.96 0 1.956-.168 2.988-.504 1.056-.36 1.872-.78 2.448-1.26l.684 1.584c-.696.72-1.728 1.344-3.096 1.872a11.51 11.51 0 01-4.176.792zm3.672-12.312c.072-.504.108-1.02.108-1.548-.024-1.56-.36-2.784-1.008-3.672-.624-.912-1.62-1.368-2.988-1.368-1.392 0-2.508.504-3.348 1.512-.816 1.008-1.284 2.7-1.404 5.076h8.64zm7.126 10.152l2.7-.216V9.792l-2.592-.648V7.2l4.968-.648h.072l.792.648v.648l-.108 2.808h.108c.24-.408.672-.936 1.296-1.584s1.428-1.236 2.412-1.764a6.44 6.44 0 013.204-.828c.48 0 .876.06 1.188.18v4.032c-.168-.12-.444-.228-.828-.324-.36-.12-.768-.18-1.224-.18-1.992 0-3.84.612-5.544 1.836v12.96l4.572.288V27h-11.016v-1.764z" fill="#212B5A"/></svg>
